X:1
T:His Love Passeth Knowledge
T:His Love Passeth Knowledge
T:John Robson Sweney
T:Frances Jane (Fanny) Crosby, 1891
T:Public Domain Courtesy of the Cyber Hymnal™
T:Public Domain Courtesy of the Cyber Hymnal™
C:John Robson Sweney
Z:Public Domain
Z:Courtesy of the Cyber Hymnal™
%%score ( 1 2 ) ( 3 4 )
L:1/8
Q:1/4=100
M:4/4
K:Bb
V:1 treble 
V:2 treble 
V:3 bass 
V:4 bass 
V:1
 [DB][Ec] | [Fd]2 [DB][EG] [DF]2 [B,D][CE] | [DF]2 [DB][DB] [DB]2 [DB][DB] | %3
w: 1.~There is|joy in my soul, for the|Sav- ior is mine, I am|
w: 2.~There is|joy in my soul that will|ne- ver de- part, My re-|
w: 3.~There is|joy in my soul though the|clouds may a- rise, Yet the|
w: 4.~There is|joy in my soul, there is|rap- ture and rest, In my|
 [DB]2 [EA][DB] [Fc]2 [Fc][Fc] | [Fc]2 [FB][Fc] [Fd]2 [DF][DF] | [DF]2 [B,D][CE] [DF]2 [DB][Ec] | %6
w: wear- ing the pledge of His|Spir- it di- vine; Ev- ery|prom- ise by faith through His|
w: deem- er has made His a-|bode in my heart; From the|tempt- er and sin I am|
w: bow of His mer- cy ne’er|fades from the skies; I am|stand- ing by faith where the|
w: Sav- ior and Lord I am|per- fect- ly blest; ’Twill be|on- ly a step ere my|
 [Fd]2 [DB][EG] [DF]2 [DF][DF] | [EG]2 [Ge][Ge] [Ge] [Fd]2 [DB] | [Ec]2 [DB][EA] [DB]2 || %9
w: grace I may claim, Oh, His|love pass- eth know- ledge, all|praise to His name.|
w: kept ev- ery hour, Oh, His|love pass- eth know- ledge, so|great is its power.|
w: pure wa- ters glide, Oh, His|love pass- eth know- ledge, so|deep and so wide.|
w: feet press the shore, Then “His|love pass- eth know- ledge,” I’ll|shout ev- er- more.|
"^Refrain" [DB][DB] | [Fc]2 FF F2 [FB][Gc] | [Fd]2 [DB][DB] [DB]2 [DF][DF] | %12
w: |||
w: There is|joy in my soul, there is|joy in my song, I am|
w: |||
w: |||
 [EG] [GB]2 [EG] [DF]2 [DB][Fd] | [Fc]2 [=Ec][Ec] !fermata![Fc]2 [_EF][EF] | %14
w: ||
w: near- ing the gates of the|bright, shin- ing throng; And I|
w: ||
w: ||
 [DF]2 [FB][FB] (BA)[FA][FB] | [Fc]2 [FB][Fc] [Fd]2 [Ff][Ff] | [Ff]2 [Fd][FB] (cB)[EG][EB] | %17
w: |||
w: list to the mu- * sic of|E- den so fair, Hal- le-|lu- jah to Je- * sus, I|
w: |||
w: |||
 [DF]2 [Ec]>[Fd] !fermata![DB]2 |] %18
w: |
w: soon shall be there.|
w: |
w: |
V:2
 x2 | x8 | x8 | x8 | x8 | x8 | x8 | x8 | x6 || x2 | x2 FF F2 x2 | x8 | x8 | x8 | x4 F2 x2 | x8 | %16
 x4 G2 x2 | x6 |] %18
V:3
 [B,,F,][B,,F,] | [B,,B,]2 [B,,F,][B,,B,] [B,,B,]2 [B,,F,][B,,F,] | %2
 [B,,B,]2 [B,,F,][B,,F,] [B,,F,]2 [B,,F,][B,,F,] | F,2 [F,C][F,B,] [F,A,]2 [F,A,][F,A,] | %4
 [F,A,]2 [F,G,][F,A,] [B,,B,]2 [B,,B,][B,,B,] | [B,,B,]2 [B,,F,][B,,F,] [B,,B,]2 [B,,F,][B,,F,] | %6
 [B,,B,]2 [B,,B,][B,,B,] [B,,B,]2 [B,,B,][B,,B,] | [E,B,]2 [E,B,][E,B,] [B,,B,] [B,,B,]2 [B,,B,] | %8
 [F,A,]2 [F,B,][F,C] [B,,B,]2 || [A,,B,][B,,B,] | [F,A,]2 [F,A,][F,A,] A,2 [D,B,][C,A,] | %11
 [B,,B,]2 [B,,F,][B,,F,] [B,,F,]2 [B,,B,][B,,B,] | [E,B,] [E,B,]2 [E,B,] [B,,B,]2 [B,,B,][B,,B,] | %13
 [C,A,]2 [C,G,][C,G,] !fermata![F,A,]2 [F,A,][F,A,] | [B,,B,]2 [B,,D][B,,D] (DC)[F,C][F,D] | %15
 [F,E]2 [F,D][F,A,] B,2 [B,D][B,D] | [B,D]2 B,[B,D] [E,E]2 [E,B,][E,G,] | %17
 [F,B,]2 [F,A,]>[F,A,] !fermata![B,,B,]2 |] %18
V:4
 x2 | x8 | x8 | F,2 x6 | x8 | x8 | x8 | x8 | x6 || x2 | x4 (F,E,) x2 | x8 | x8 | x8 | x4 F,2 x2 | %15
 x4 B,2 x2 | x2 B, x5 | x6 |] %18

